src/assets/icons/weibo.svg

<?xml version="1.0" encoding="UTF-8"?><!DOCTYPE svg><svg width="364pt" height="364pt" version="1.1" viewBox="0 0 364 364" xmlns="http://www.w3.org/2000/svg"><g fill="#fff"><path d="m0 0h364v364h-364v-364m246.39 38.49c-4.11 1.34-7.8 4.05-10.37 7.51-3.41 6.44-1.58 16.63 6.15 18.94 10.51 1.82 21.22-1.24 31.76 0.41 15.45 2.6 29.38 11.41 39.3 23.42 10.16 11.93 16.67 27.41 16.25 43.22 0.16 9.03-3.13 17.91-1.62 26.95 0.66 3.18 2.95 5.78 5.55 7.6 6.64 4.36 17 0.75 19.23-6.94 4.57-14.35 4.4-29.68 2.78-44.5-3.22-15.87-8.87-31.65-19.15-44.38-9.57-11.36-21.8-20.47-35.5-26.24-11.16-4-22.85-7.09-34.79-6.91-6.53 0.14-13.19-0.64-19.59 0.92m-106.04 41.75c-8.13 1.31-16.28 3.05-23.93 6.18-7.22 3.46-13.83 8.05-20.46 12.49-31.52 22.24-57.84 51.74-76.66 85.4-3.77 7.3-8.34 14.33-10.5 22.34-2.78 11.09-2.99 22.83-0.39 33.98 4.09 17.51 15.6 32.4 29.26 43.68 23.13 18.91 51.97 29.87 81.25 34.68 13.59 2.09 27.38 1.38 41.07 1.52 4.13 0.09 8.24-0.29 12.33-0.79 19.24-0.9 38.15-5.34 56.44-11.18 14.27-5.09 28.16-11.5 40.68-20.09 18.49-12.66 33.44-31.03 40.46-52.46 3.62-12.31 3.97-26.61-3.12-37.8-5.71-9.75-15.94-15.72-26.23-19.65-5.12-2-10.93-2.34-15.56-5.49-2.57-1.55-2.06-5.09-1.27-7.51 2.36-5.79 6.74-10.99 6.8-17.53 0.91-13.27-9.52-25.23-21.91-28.68-13.62-3.82-27.95-0.76-41.21 3.08-7.23 2.06-14.44 4.17-21.62 6.36-2.44 0.8-6.12 1.25-7.09-1.87-0.78-5.59 2.91-10.45 3.52-15.86 1.01-8.92 0.22-19.08-6.48-25.77-3.4-3.98-8.64-5.7-13.76-5.75-7.2-0.09-14.47-0.38-21.62 0.72m115.99 6.1c-2.86 0.73-5.86 1.81-7.89 4.07-2.04 2.71-2.18 6.35-1.87 9.61 0.41 3.99 4.19 6.36 7.53 7.85 6.1 2.97 13.27 0.78 19.44 3.56 6.7 2.56 11.58 9.3 11.55 16.52-0.04 6.84-1.59 14.43 2.43 20.52 3.53 6.03 12.94 4.9 17.14 0.2 5.38-5.42 4.72-13.64 4.82-20.66 0.62-16.34-9.89-32.23-24.78-38.73-8.74-4.3-18.93-4.49-28.37-2.94z"/><path d="m144.34 161.25c17.36-1.65 35.14-0.73 51.92 4.24 19.32 5.21 38.2 15.91 48.9 33.33 6.6 10.51 7.79 23.65 5.21 35.59-4.52 17.63-17.84 31.41-32.39 41.55-24.57 16.51-54.56 23.92-83.98 23.44-22.41-0.41-45.25-5.71-64.02-18.36-11.32-7.81-20.99-18.92-24.59-32.43-3.67-14.32 0.26-29.66 8.65-41.6 13.93-19.67 35.74-32.39 58.38-39.54 10.48-2.78 21.05-5.59 31.92-6.22m-10.9 29.44c-16.48 2.24-32.13 11.53-41.05 25.71-6.25 9.67-9.26 21.67-7.02 33.07 2.96 17.03 16.89 30.73 33.03 35.92 23.8 7.51 51.45-1.72 66.51-21.48 8.43-10.55 12.58-24.63 10.15-38.01-1.99-9.92-7.66-19.17-16.03-24.95-13.14-9.22-29.88-11.78-45.59-10.26z"/><path d="m116.38 230.43c9.1-2.64 21.78 0.12 25.03 10.11 2.92 9.99-4.67 19.95-14.05 22.77-7.5 2.64-16.84 0.51-21.63-6.07-3.82-4.72-4.22-11.66-1.42-16.97 2.49-4.72 7-8.25 12.07-9.84z"/></g><path d="m246.39 38.49c6.4-1.56 13.06-0.78 19.59-0.92 11.94-0.18 23.63 2.91 34.79 6.91 13.7 5.77 25.93 14.88 35.5 26.24 10.28 12.73 15.93 28.51 19.15 44.38 1.62 14.82 1.79 30.15-2.78 44.5-2.23 7.69-12.59 11.3-19.23 6.94-2.6-1.82-4.89-4.42-5.55-7.6-1.51-9.04 1.78-17.92 1.62-26.95 0.42-15.81-6.09-31.29-16.25-43.22-9.92-12.01-23.85-20.82-39.3-23.42-10.54-1.65-21.25 1.41-31.76-0.41-7.73-2.31-9.56-12.5-6.15-18.94 2.57-3.46 6.26-6.17 10.37-7.51z" fill="#e77a18"/><path d="m140.35 80.24c7.15-1.1 14.42-0.81 21.62-0.72 5.12 0.05 10.36 1.77 13.76 5.75 6.7 6.69 7.49 16.85 6.48 25.77-0.61 5.41-4.3 10.27-3.52 15.86 0.97 3.12 4.65 2.67 7.09 1.87 7.18-2.19 14.39-4.3 21.62-6.36 13.26-3.84 27.59-6.9 41.21-3.08 12.39 3.45 22.82 15.41 21.91 28.68-0.06 6.54-4.44 11.74-6.8 17.53-0.79 2.42-1.3 5.96 1.27 7.51 4.63 3.15 10.44 3.49 15.56 5.49 10.29 3.93 20.52 9.9 26.23 19.65 7.09 11.19 6.74 25.49 3.12 37.8-7.02 21.43-21.97 39.8-40.46 52.46-12.52 8.59-26.41 15-40.68 20.09-18.29 5.84-37.2 10.28-56.44 11.18-4.09 0.5-8.2 0.88-12.33 0.79-13.69-0.14-27.48 0.57-41.07-1.52-29.28-4.81-58.12-15.77-81.25-34.68-13.66-11.28-25.17-26.17-29.26-43.68-2.6-11.15-2.39-22.89 0.39-33.98 2.16-8.01 6.73-15.04 10.5-22.34 18.82-33.66 45.14-63.16 76.66-85.4 6.63-4.44 13.24-9.03 20.46-12.49 7.65-3.13 15.8-4.87 23.93-6.18m3.99 81.01c-10.87 0.63-21.44 3.44-31.92 6.22-22.64 7.15-44.45 19.87-58.38 39.54-8.39 11.94-12.32 27.28-8.65 41.6 3.6 13.51 13.27 24.62 24.59 32.43 18.77 12.65 41.61 17.95 64.02 18.36 29.42 0.48 59.41-6.93 83.98-23.44 14.55-10.14 27.87-23.92 32.39-41.55 2.58-11.94 1.39-25.08-5.21-35.59-10.7-17.42-29.58-28.12-48.9-33.33-16.78-4.97-34.56-5.89-51.92-4.24z" fill="#d9251b"/><path d="m256.34 86.34c9.44-1.55 19.63-1.36 28.37 2.94 14.89 6.5 25.4 22.39 24.78 38.73-0.1 7.02 0.56 15.24-4.82 20.66-4.2 4.7-13.61 5.83-17.14-0.2-4.02-6.09-2.47-13.68-2.43-20.52 0.03-7.22-4.85-13.96-11.55-16.52-6.17-2.78-13.34-0.59-19.44-3.56-3.34-1.49-7.12-3.86-7.53-7.85-0.31-3.26-0.17-6.9 1.87-9.61 2.03-2.26 5.03-3.34 7.89-4.07z" fill="#e67a19"/><path d="m133.44 190.69c15.71-1.52 32.45 1.04 45.59 10.26 8.37 5.78 14.04 15.03 16.03 24.95 2.43 13.38-1.72 27.46-10.15 38.01-15.06 19.76-42.71 28.99-66.51 21.48-16.14-5.19-30.07-18.89-33.03-35.92-2.24-11.4 0.77-23.4 7.02-33.07 8.92-14.18 24.57-23.47 41.05-25.71m15.9 30.67c-3.28 0.91-6.42 3.93-6.11 7.57-0.03 2.58 1.93 4.69 4.12 5.8 5.18 2.61 12.67-1.67 12.14-7.72-0.2-4.86-6.09-6.78-10.15-5.65m-32.96 9.07c-5.07 1.59-9.58 5.12-12.07 9.84-2.8 5.31-2.4 12.25 1.42 16.97 4.79 6.58 14.13 8.71 21.63 6.07 9.38-2.82 16.97-12.78 14.05-22.77-3.25-9.99-15.93-12.75-25.03-10.11z" fill="#1e1a17"/><path d="m149.34 221.36c4.06-1.13 9.95 0.79 10.15 5.65 0.53 6.05-6.96 10.33-12.14 7.72-2.19-1.11-4.15-3.22-4.12-5.8-0.31-3.64 2.83-6.66 6.11-7.57z" fill="#fefefd"/></svg>

<?xml version="1.0" encoding="UTF-8" ?>
<!DOCTYPE svg PUBLIC "-//W3C//DTD SVG 1.1//EN" "http://www.w3.org/Graphics/SVG/1.1/DTD/svg11.dtd">
<svg width="364pt" height="364pt" viewBox="0 0 364 364" version="1.1" xmlns="http://www.w3.org/2000/svg">
<g id="#ffffffff">
<path fill="#ffffff" opacity="1.00" d=" M 0.00 0.00 L 364.00 0.00 L 364.00 364.00 L 0.00 364.00 L 0.00 0.00 M 246.39 38.49 C 242.28 39.83 238.59 42.54 236.02 46.00 C 232.61 52.44 234.44 62.63 242.17 64.94 C 252.68 66.76 263.39 63.70 273.93 65.35 C 289.38 67.95 303.31 76.76 313.23 88.77 C 323.39 100.70 329.90 116.18 329.48 131.99 C 329.64 141.02 326.35 149.90 327.86 158.94 C 328.52 162.12 330.81 164.72 333.41 166.54 C 340.05 170.90 350.41 167.29 352.64 159.60 C 357.21 145.25 357.04 129.92 355.42 115.10 C 352.20 99.23 346.55 83.45 336.27 70.72 C 326.70 59.36 314.47 50.25 300.77 44.48 C 289.61 40.48 277.92 37.39 265.98 37.57 C 259.45 37.71 252.79 36.93 246.39 38.49 M 140.35 80.24 C 132.22 81.55 124.07 83.29 116.42 86.42 C 109.20 89.88 102.59 94.47 95.96 98.91 C 64.44 121.15 38.12 150.65 19.30 184.31 C 15.53 191.61 10.96 198.64 8.80 206.65 C 6.02 217.74 5.81 229.48 8.41 240.63 C 12.50 258.14 24.01 273.03 37.67 284.31 C 60.80 303.22 89.64 314.18 118.92 318.99 C 132.51 321.08 146.30 320.37 159.99 320.51 C 164.12 320.60 168.23 320.22 172.32 319.72 C 191.56 318.82 210.47 314.38 228.76 308.54 C 243.03 303.45 256.92 297.04 269.44 288.45 C 287.93 275.79 302.88 257.42 309.90 235.99 C 313.52 223.68 313.87 209.38 306.78 198.19 C 301.07 188.44 290.84 182.47 280.55 178.54 C 275.43 176.54 269.62 176.20 264.99 173.05 C 262.42 171.50 262.93 167.96 263.72 165.54 C 266.08 159.75 270.46 154.55 270.52 148.01 C 271.43 134.74 261.00 122.78 248.61 119.33 C 234.99 115.51 220.66 118.57 207.40 122.41 C 200.17 124.47 192.96 126.58 185.78 128.77 C 183.34 129.57 179.66 130.02 178.69 126.90 C 177.91 121.31 181.60 116.45 182.21 111.04 C 183.22 102.12 182.43 91.96 175.73 85.27 C 172.33 81.29 167.09 79.57 161.97 79.52 C 154.77 79.43 147.50 79.14 140.35 80.24 M 256.34 86.34 C 253.48 87.07 250.48 88.15 248.45 90.41 C 246.41 93.12 246.27 96.76 246.58 100.02 C 246.99 104.01 250.77 106.38 254.11 107.87 C 260.21 110.84 267.38 108.65 273.55 111.43 C 280.25 113.99 285.13 120.73 285.10 127.95 C 285.06 134.79 283.51 142.38 287.53 148.47 C 291.06 154.50 300.47 153.37 304.67 148.67 C 310.05 143.25 309.39 135.03 309.49 128.01 C 310.11 111.67 299.60 95.78 284.71 89.28 C 275.97 84.98 265.78 84.79 256.34 86.34 Z" />
<path fill="#ffffff" opacity="1.00" d=" M 144.34 161.25 C 161.70 159.60 179.48 160.52 196.26 165.49 C 215.58 170.70 234.46 181.40 245.16 198.82 C 251.76 209.33 252.95 222.47 250.37 234.41 C 245.85 252.04 232.53 265.82 217.98 275.96 C 193.41 292.47 163.42 299.88 134.00 299.40 C 111.59 298.99 88.75 293.69 69.98 281.04 C 58.66 273.23 48.99 262.12 45.39 248.61 C 41.72 234.29 45.65 218.95 54.04 207.01 C 67.97 187.34 89.78 174.62 112.42 167.47 C 122.90 164.69 133.47 161.88 144.34 161.25 M 133.44 190.69 C 116.96 192.93 101.31 202.22 92.39 216.40 C 86.14 226.07 83.13 238.07 85.37 249.47 C 88.33 266.50 102.26 280.20 118.40 285.39 C 142.20 292.90 169.85 283.67 184.91 263.91 C 193.34 253.36 197.49 239.28 195.06 225.90 C 193.07 215.98 187.40 206.73 179.03 200.95 C 165.89 191.73 149.15 189.17 133.44 190.69 Z" />
<path fill="#ffffff" opacity="1.00" d=" M 116.38 230.43 C 125.48 227.79 138.16 230.55 141.41 240.54 C 144.33 250.53 136.74 260.49 127.36 263.31 C 119.86 265.95 110.52 263.82 105.73 257.24 C 101.91 252.52 101.51 245.58 104.31 240.27 C 106.80 235.55 111.31 232.02 116.38 230.43 Z" />
</g>
<g id="#e77a18ff">
<path fill="#e77a18" opacity="1.00" d=" M 246.39 38.49 C 252.79 36.93 259.45 37.71 265.98 37.57 C 277.92 37.39 289.61 40.48 300.77 44.48 C 314.47 50.25 326.70 59.36 336.27 70.72 C 346.55 83.45 352.20 99.23 355.42 115.10 C 357.04 129.92 357.21 145.25 352.64 159.60 C 350.41 167.29 340.05 170.90 333.41 166.54 C 330.81 164.72 328.52 162.12 327.86 158.94 C 326.35 149.90 329.64 141.02 329.48 131.99 C 329.90 116.18 323.39 100.70 313.23 88.77 C 303.31 76.76 289.38 67.95 273.93 65.35 C 263.39 63.70 252.68 66.76 242.17 64.94 C 234.44 62.63 232.61 52.44 236.02 46.00 C 238.59 42.54 242.28 39.83 246.39 38.49 Z" />
</g>
<g id="#d9251bff">
<path fill="#d9251b" opacity="1.00" d=" M 140.35 80.24 C 147.50 79.14 154.77 79.43 161.97 79.52 C 167.09 79.57 172.33 81.29 175.73 85.27 C 182.43 91.96 183.22 102.12 182.21 111.04 C 181.60 116.45 177.91 121.31 178.69 126.90 C 179.66 130.02 183.34 129.57 185.78 128.77 C 192.96 126.58 200.17 124.47 207.40 122.41 C 220.66 118.57 234.99 115.51 248.61 119.33 C 261.00 122.78 271.43 134.74 270.52 148.01 C 270.46 154.55 266.08 159.75 263.72 165.54 C 262.93 167.96 262.42 171.50 264.99 173.05 C 269.62 176.20 275.43 176.54 280.55 178.54 C 290.84 182.47 301.07 188.44 306.78 198.19 C 313.87 209.38 313.52 223.68 309.90 235.99 C 302.88 257.42 287.93 275.79 269.44 288.45 C 256.92 297.04 243.03 303.45 228.76 308.54 C 210.47 314.38 191.56 318.82 172.32 319.72 C 168.23 320.22 164.12 320.60 159.99 320.51 C 146.30 320.37 132.51 321.08 118.92 318.99 C 89.64 314.18 60.80 303.22 37.67 284.31 C 24.01 273.03 12.50 258.14 8.41 240.63 C 5.81 229.48 6.02 217.74 8.80 206.65 C 10.96 198.64 15.53 191.61 19.30 184.31 C 38.12 150.65 64.44 121.15 95.96 98.91 C 102.59 94.47 109.20 89.88 116.42 86.42 C 124.07 83.29 132.22 81.55 140.35 80.24 M 144.34 161.25 C 133.47 161.88 122.90 164.69 112.42 167.47 C 89.78 174.62 67.97 187.34 54.04 207.01 C 45.65 218.95 41.72 234.29 45.39 248.61 C 48.99 262.12 58.66 273.23 69.98 281.04 C 88.75 293.69 111.59 298.99 134.00 299.40 C 163.42 299.88 193.41 292.47 217.98 275.96 C 232.53 265.82 245.85 252.04 250.37 234.41 C 252.95 222.47 251.76 209.33 245.16 198.82 C 234.46 181.40 215.58 170.70 196.26 165.49 C 179.48 160.52 161.70 159.60 144.34 161.25 Z" />
</g>
<g id="#e67a19ff">
<path fill="#e67a19" opacity="1.00" d=" M 256.34 86.34 C 265.78 84.79 275.97 84.98 284.71 89.28 C 299.60 95.78 310.11 111.67 309.49 128.01 C 309.39 135.03 310.05 143.25 304.67 148.67 C 300.47 153.37 291.06 154.50 287.53 148.47 C 283.51 142.38 285.06 134.79 285.10 127.95 C 285.13 120.73 280.25 113.99 273.55 111.43 C 267.38 108.65 260.21 110.84 254.11 107.87 C 250.77 106.38 246.99 104.01 246.58 100.02 C 246.27 96.76 246.41 93.12 248.45 90.41 C 250.48 88.15 253.48 87.07 256.34 86.34 Z" />
</g>
<g id="#1e1a17ff">
<path fill="#1e1a17" opacity="1.00" d=" M 133.44 190.69 C 149.15 189.17 165.89 191.73 179.03 200.95 C 187.40 206.73 193.07 215.98 195.06 225.90 C 197.49 239.28 193.34 253.36 184.91 263.91 C 169.85 283.67 142.20 292.90 118.40 285.39 C 102.26 280.20 88.33 266.50 85.37 249.47 C 83.13 238.07 86.14 226.07 92.39 216.40 C 101.31 202.22 116.96 192.93 133.44 190.69 M 149.34 221.36 C 146.06 222.27 142.92 225.29 143.23 228.93 C 143.20 231.51 145.16 233.62 147.35 234.73 C 152.53 237.34 160.02 233.06 159.49 227.01 C 159.29 222.15 153.40 220.23 149.34 221.36 M 116.38 230.43 C 111.31 232.02 106.80 235.55 104.31 240.27 C 101.51 245.58 101.91 252.52 105.73 257.24 C 110.52 263.82 119.86 265.95 127.36 263.31 C 136.74 260.49 144.33 250.53 141.41 240.54 C 138.16 230.55 125.48 227.79 116.38 230.43 Z" />
</g>
<g id="#fefefdff">
<path fill="#fefefd" opacity="1.00" d=" M 149.34 221.36 C 153.40 220.23 159.29 222.15 159.49 227.01 C 160.02 233.06 152.53 237.34 147.35 234.73 C 145.16 233.62 143.20 231.51 143.23 228.93 C 142.92 225.29 146.06 222.27 149.34 221.36 Z" />
</g>
</svg>
